images/zcrt.svg

<svg height="250" viewBox="0 0 250 250" width="250" xmlns="http://www.w3.org/2000/svg"><path d="m105.714844 248.855469c-26.714844-4.070313-50.929688-16.785157-70.785156-37.210938-16.785157-17.289062-27.5-37.714843-32.929688-62.429687-1.355469-6.5-1.570312-9.5-1.570312-24.214844 0-14.785156.214843-17.714844 1.570312-24.285156 5.714844-26.214844 17.714844-47.929688 36.714844-66.070313 23.785156-22.789062 53.355468-34.644531 86.285156-34.644531 24.785156 0 47.570312 6.644531 67.855469 19.855469 8.644531 5.574219 15.074219 11 23.429687 19.789062 15.785156 16.5 26.5 37.140625 31.714844 61.140625 1.355469 6.5 1.570312 9.5 1.644531 23.859375 0 19.210938-.789062 24.710938-5.714843 39.425781-15.144532 45.5-53.859376 78.214844-100.359376 84.859376-9.425781 1.285156-28.785156 1.285156-37.855468-.074219zm0 0" fill="#34673a"/><path d="m105.714844 248.855469c-27.070313-4.210938-50.929688-16.785157-70.785156-37.210938-16.785157-17.289062-27.5-37.714843-32.929688-62.429687-1.355469-6.5-1.570312-9.5-1.570312-24.214844 0-14.785156.214843-17.714844 1.570312-24.285156 5.714844-26.214844 17.714844-47.929688 36.714844-66.070313 23.785156-22.789062 53.355468-34.644531 86.285156-34.644531 24.785156 0 47.570312 6.644531 67.855469 19.855469 8.644531 5.574219 15.074219 11 23.429687 19.789062 15.785156 16.5 26.5 37.140625 31.714844 61.140625 1.355469 6.5 1.570312 9.5 1.644531 23.859375 0 18.210938-.789062 24.140625-4.714843 36.570313-2.859376 8.929687-6.359376 17.5-7.074219 17.214844-.355469-.144532-10.425781-12.929688-22.5-28.429688-22.785157-29.285156-23.925781-30.644531-22.570313-28.070312 1 1.925781 1 8.285156.070313 11.640624-.855469 3.214844-4.425781 7.429688-8.070313 9.785157-2.140625 1.359375-4.214844 1.929687-7.640625 2.214843-4.214843.285157-5.144531.074219-9.144531-1.925781-3.429688-1.714843-5-3.074219-6.644531-5.644531-1.140625-1.855469-2.285157-4.144531-2.5-5.144531-.855469-3.925781-1.140625-4.285157-2.785157-4.285157-1.355468 0-1.785156.574219-2.5 3.644532-3.785156 15.570312-20.425781 25.355468-35.714843 20.855468-4.210938-1.214843-6.070313-2.140624-10.5-5.355468-4.210938-3.070313-8.855469-10.214844-10.285157-15.785156-.714843-3.074219-1-3.429688-2.640624-3.214844-1.5.140625-2 .855468-3 4-3.429688 10.355468-13.285157 15.785156-23 12.5l-4.074219-1.429688 1.359375 1.859375c.714844 1 19 24.5 40.640625 52.210938 36.429687 46.714843 39.144531 50.429687 37.714843 51-2.925781 1.144531-30.925781 1.214843-38.355468 0zm0 0" fill="#5ab669"/><path d="m119.285156 153.355469c-5.140625-1.210938-9.429687-3.5-13.355468-7.140625-4.285157-3.929688-6.644532-7.714844-8.074219-13-1.140625-4.144532-1.285157-4.285156-3.710938-4.5-2.5-.214844-2.5-.214844-3 3.285156-1.429687 10.785156-14.644531 17.285156-24.714843 12.285156-3.859376-1.929687-6.359376-4.640625-8.359376-9-6.640624-14.640625 9.5-29.855468 23.929688-22.5 3.285156 1.644532 7.785156 6.5 8.429688 9 .355468 1.5.855468 1.785156 3.140624 1.785156 2.644532 0 2.714844-.070312 3.144532-3.214843.785156-4.925781 4.929687-12.570313 9-16.355469 9.140625-8.570312 21.785156-10.285156 33-4.644531 7.714844 3.859375 14 12.359375 15.429687 20.714843.5 2.785157.710938 3.144532 2.5 3.144532 1.570313 0 2.355469-.714844 4.210938-3.929688 3.214843-5.285156 7.714843-8.070312 13.789062-8.429687 5.570313-.355469 9 .714843 12.640625 4 5.785156 5.214843 7.714844 12.789062 4.929688 19.644531-5 12.355469-20.5 14.929688-29.570313 4.855469-2.359375-2.640625-4.074219-6.570313-4.074219-9.5 0-.925781-.570312-1.285157-2.070312-1.285157-1.855469 0-2.144531.359376-2.855469 3.285157-3.144531 12.429687-13.359375 21-26.144531 22.074219-2.355469.140624-6.070312-.074219-8.214844-.574219zm0 0" fill="#fff"/></svg>

<svg xmlns="http://www.w3.org/2000/svg" xmlns:xlink="http://www.w3.org/1999/xlink" width="250px" height="250px" viewBox="0 0 250 250" version="1.1">
<g id="surface1">
<path style=" stroke:none;fill-rule:nonzero;fill:rgb(20.392157%,40.392157%,22.745098%);fill-opacity:1;" d="M 105.714844 248.855469 C 79 244.785156 54.785156 232.070312 34.929688 211.644531 C 18.144531 194.355469 7.429688 173.929688 2 149.214844 C 0.644531 142.714844 0.429688 139.714844 0.429688 125 C 0.429688 110.214844 0.644531 107.285156 2 100.714844 C 7.714844 74.5 19.714844 52.785156 38.714844 34.644531 C 62.5 11.855469 92.070312 0 125 0 C 149.785156 0 172.570312 6.644531 192.855469 19.855469 C 201.5 25.429688 207.929688 30.855469 216.285156 39.644531 C 232.070312 56.144531 242.785156 76.785156 248 100.785156 C 249.355469 107.285156 249.570312 110.285156 249.644531 124.644531 C 249.644531 143.855469 248.855469 149.355469 243.929688 164.070312 C 228.785156 209.570312 190.070312 242.285156 143.570312 248.929688 C 134.144531 250.214844 114.785156 250.214844 105.714844 248.855469 Z M 105.714844 248.855469 "/>
<path style=" stroke:none;fill-rule:nonzero;fill:rgb(35.294119%,71.372551%,41.176471%);fill-opacity:1;" d="M 105.714844 248.855469 C 78.644531 244.644531 54.785156 232.070312 34.929688 211.644531 C 18.144531 194.355469 7.429688 173.929688 2 149.214844 C 0.644531 142.714844 0.429688 139.714844 0.429688 125 C 0.429688 110.214844 0.644531 107.285156 2 100.714844 C 7.714844 74.5 19.714844 52.785156 38.714844 34.644531 C 62.5 11.855469 92.070312 0 125 0 C 149.785156 0 172.570312 6.644531 192.855469 19.855469 C 201.5 25.429688 207.929688 30.855469 216.285156 39.644531 C 232.070312 56.144531 242.785156 76.785156 248 100.785156 C 249.355469 107.285156 249.570312 110.285156 249.644531 124.644531 C 249.644531 142.855469 248.855469 148.785156 244.929688 161.214844 C 242.070312 170.144531 238.570312 178.714844 237.855469 178.429688 C 237.5 178.285156 227.429688 165.5 215.355469 150 C 192.570312 120.714844 191.429688 119.355469 192.785156 121.929688 C 193.785156 123.855469 193.785156 130.214844 192.855469 133.570312 C 192 136.785156 188.429688 141 184.785156 143.355469 C 182.644531 144.714844 180.570312 145.285156 177.144531 145.570312 C 172.929688 145.855469 172 145.644531 168 143.644531 C 164.570312 141.929688 163 140.570312 161.355469 138 C 160.214844 136.144531 159.070312 133.855469 158.855469 132.855469 C 158 128.929688 157.714844 128.570312 156.070312 128.570312 C 154.714844 128.570312 154.285156 129.144531 153.570312 132.214844 C 149.785156 147.785156 133.144531 157.570312 117.855469 153.070312 C 113.644531 151.855469 111.785156 150.929688 107.355469 147.714844 C 103.144531 144.644531 98.5 137.5 97.070312 131.929688 C 96.355469 128.855469 96.070312 128.5 94.429688 128.714844 C 92.929688 128.855469 92.429688 129.570312 91.429688 132.714844 C 88 143.070312 78.144531 148.5 68.429688 145.214844 L 64.355469 143.785156 L 65.714844 145.644531 C 66.429688 146.644531 84.714844 170.144531 106.355469 197.855469 C 142.785156 244.570312 145.5 248.285156 144.070312 248.855469 C 141.144531 250 113.144531 250.070312 105.714844 248.855469 Z M 105.714844 248.855469 "/>
<path style=" stroke:none;fill-rule:nonzero;fill:rgb(100%,100%,100%);fill-opacity:1;" d="M 119.285156 153.355469 C 114.144531 152.144531 109.855469 149.855469 105.929688 146.214844 C 101.644531 142.285156 99.285156 138.5 97.855469 133.214844 C 96.714844 129.070312 96.570312 128.929688 94.144531 128.714844 C 91.644531 128.5 91.644531 128.5 91.144531 132 C 89.714844 142.785156 76.5 149.285156 66.429688 144.285156 C 62.570312 142.355469 60.070312 139.644531 58.070312 135.285156 C 51.429688 120.644531 67.570312 105.429688 82 112.785156 C 85.285156 114.429688 89.785156 119.285156 90.429688 121.785156 C 90.785156 123.285156 91.285156 123.570312 93.570312 123.570312 C 96.214844 123.570312 96.285156 123.5 96.714844 120.355469 C 97.5 115.429688 101.644531 107.785156 105.714844 104 C 114.855469 95.429688 127.5 93.714844 138.714844 99.355469 C 146.429688 103.214844 152.714844 111.714844 154.144531 120.070312 C 154.644531 122.855469 154.855469 123.214844 156.644531 123.214844 C 158.214844 123.214844 159 122.5 160.855469 119.285156 C 164.070312 114 168.570312 111.214844 174.644531 110.855469 C 180.214844 110.5 183.644531 111.570312 187.285156 114.855469 C 193.070312 120.070312 195 127.644531 192.214844 134.5 C 187.214844 146.855469 171.714844 149.429688 162.644531 139.355469 C 160.285156 136.714844 158.570312 132.785156 158.570312 129.855469 C 158.570312 128.929688 158 128.570312 156.5 128.570312 C 154.644531 128.570312 154.355469 128.929688 153.644531 131.855469 C 150.5 144.285156 140.285156 152.855469 127.5 153.929688 C 125.144531 154.070312 121.429688 153.855469 119.285156 153.355469 Z M 119.285156 153.355469 "/>
</g>
</svg>
